X:220
T:Hé, Diex, quant verrai
C:Adam de la Halle
R:Rondeau
O:XIIIe
M:6/8
L:1/8
Q:1/4=70
K:C 
V:1
%%MIDI program 15
c2f/2g/2 a2 (3g/2f/2e/2 | d2e/2f/2 g (3f/2e/2d/2B | c2z c2f/2g/2 | a2 (3g/2f/2e/2 d2z | 
c2f/2g/2 a2 (3g/2f/2e/2 | d2z c2f/2g/2 | a2 (3g/2f/2e/2 d2e/2f/2 | g (3f/2e/2d/2B c3 |]
V:2
f2f e/2d/2e (3e/2d/2c/2 | B2c d/2c/2de | f2z f2f | e/2d/2e (3e/2d/2c/2 B2z | 
f2f e/2d/2e (3e/2d/2c/2 | B2z f2f | e/2d/2e (3e/2d/2c/2 B2c | d/2c/2de f3 |]
V:3
F2F A2A | G2A G2G | F2z F2F | A2A G2z | 
F2F A2A | G2z F2F | A2A G2A | G2G F3 |]



%%header "$P0	 $IR 	$P1"
%%footer $D - Éditions Galouvielle - 2009 - À usage librement privé dans le cadre familial

